src/assets/filled/CalendarSearch.svg

<svg width="24" height="24" viewBox="0 0 24 24"  xmlns="http://www.w3.org/2000/svg">
<path d="M16.75 3.56V2C16.75 1.59 16.41 1.25 16 1.25C15.59 1.25 15.25 1.59 15.25 2V3.5H8.74999V2C8.74999 1.59 8.40999 1.25 7.99999 1.25C7.58999 1.25 7.24999 1.59 7.24999 2V3.56C4.54999 3.81 3.23999 5.42 3.03999 7.81C3.01999 8.1 3.25999 8.34 3.53999 8.34H20.46C20.75 8.34 20.99 8.09 20.96 7.81C20.76 5.42 19.45 3.81 16.75 3.56Z" />
<path d="M20 9.83984H4C3.45 9.83984 3 10.2898 3 10.8398V16.9998C3 19.9998 4.5 21.9998 8 21.9998H16C19.5 21.9998 21 19.9998 21 16.9998V10.8398C21 10.2898 20.55 9.83984 20 9.83984ZM15.66 19.5298C15.51 19.6798 15.32 19.7498 15.13 19.7498C14.94 19.7498 14.75 19.6798 14.6 19.5298L13.86 18.7898C13.28 19.1698 12.58 19.3998 11.83 19.3998C9.79 19.3998 8.13 17.7398 8.13 15.6998C8.13 13.6598 9.79 11.9998 11.83 11.9998C13.87 11.9998 15.53 13.6598 15.53 15.6998C15.53 16.4498 15.3 17.1498 14.92 17.7298L15.66 18.4698C15.95 18.7598 15.95 19.2398 15.66 19.5298Z" />
</svg>

<?xml version="1.0" encoding="UTF-8"?>
<svg width="24" height="24" viewBox="0 0 24 24" xmlns="http://www.w3.org/2000/svg">
 <path d="m16.75 3.56v-1.56c0-0.41-0.34-0.75-0.75-0.75s-0.75 0.34-0.75 0.75v1.5h-6.5v-1.5c0-0.41-0.34-0.75-0.75-0.75s-0.75 0.34-0.75 0.75v1.56c-2.7 0.25-4.01 1.86-4.21 4.25-0.02 0.29 0.22 0.53 0.5 0.53h16.92c0.29 0 0.53-0.25 0.5-0.53-0.2-2.39-1.51-4-4.21-4.25z"/>
 <path d="m20 9.8398h-16c-0.55 0-1 0.44996-1 0.99996v6.16c0 3 1.5 5 5 5h8c3.5 0 5-2 5-5v-6.16c0-0.55-0.45-0.99996-1-0.99996zm-4.34 9.69c-0.15 0.15-0.34 0.22-0.53 0.22s-0.38-0.07-0.53-0.22l-0.74-0.74c-0.58 0.38-1.28 0.61-2.03 0.61-2.04 0-3.7-1.66-3.7-3.7s1.66-3.7 3.7-3.7 3.7 1.66 3.7 3.7c0 0.75-0.23 1.45-0.61 2.03l0.74 0.74c0.29 0.29 0.29 0.77 0 1.06z"/>
</svg>
